X: 3500
T: Biddy From Muckross
R: reel
M: 4/4
K: Dmajor
D2 (3FED FABc|d2 fd BcdB|AD (3FED FABc|dBAF DdcB|
AD (3FED FABc|d2 fd BcdB|AD (3FED FABc|dBAF D2 fg||
a2 fd Adfd|adfd cdef|(3aba fd gfec|dBAG FD (3DDD|
a2 fd Adfd|adfd cdef|gbag faec|dBAF Ddcd||

